images/design/steering-wheel-4-1.svg

<?xml version="1.0" encoding="UTF-8"?>
<svg id="_Шар_2" data-name="Шар 2" xmlns="http://www.w3.org/2000/svg" viewBox="0 0 265.24 265.64">
  <defs>
    <style>
      .cls-1 {
        fill: #939598;
        fill-rule: evenodd;
        stroke-width: 0px;
      }

      .cls-2 {
        fill: #fbb040;
        stroke: #fff200;
        stroke-miterlimit: 10;
        stroke-width: 4px;
      }
    </style>
  </defs>
  <g id="Layer_1" data-name="Layer 1">
    <g>
      <path class="cls-1" d="m50.01,200.1c23.81-11.7,17.98-68.14-15.15-73.66-10.9-1.83-17.23-2.22-16.84,10.12.75,23.74,8.69,45.64,21.73,63.62,2.58,3.57,6.63,1.7,10.26-.08h0Zm165.23,0c-23.8-11.7-17.98-68.14,15.15-73.66,10.88-1.83,17.26-2.22,16.86,10.12-.77,23.74-8.73,45.64-21.75,63.62-2.56,3.57-6.65,1.7-10.26-.08h0Zm-82.61,8.35c-36.39,0-56.01,4.99-62.86,11.46-4.63,4.35-3.49,6.74.86,9.52,17.87,11.56,39.15,18.25,62,18.25s44.11-6.69,62.01-18.25c4.33-2.78,5.44-5.18.83-9.52-6.86-6.47-26.46-11.46-62.84-11.46h0Zm0-190.88c-48.16,0-89.38,29.74-106.38,71.85-6.1,15.2-5.19,17.7,12.93,16.15,34.09-6.6,57.54-12.52,93.15-13.12h.61c35.57.59,59.03,6.52,93.1,13.12,18.12,1.55,19.08-.95,12.93-16.15-16.98-42.11-58.2-71.85-106.34-71.85h0Zm0,97.98c15.07,0,27.3,7.74,27.3,17.26s-12.23,17.26-27.3,17.26-27.32-7.72-27.32-17.26,12.23-17.26,27.32-17.26h0Zm0,150.08C59.39,265.64,0,206.17,0,132.82S59.39,0,132.63,0s132.61,59.47,132.61,132.82-59.37,132.82-132.61,132.82h0Z"/>
      <line class="cls-2" x1="132.18" y1="247.45" x2="132.18" y2="265.45"/>
    </g>
  </g>
</svg>

<svg width="266" height="266" viewBox="0 0 266 266" fill="none" xmlns="http://www.w3.org/2000/svg">
<g clip-path="url(#clip0_254_3)">
<path fill-rule="evenodd" clip-rule="evenodd" d="M50.01 200.1C73.82 188.4 67.99 131.96 34.86 126.44C23.96 124.61 17.63 124.22 18.02 136.56C18.77 160.3 26.71 182.2 39.75 200.18C42.33 203.75 46.38 201.88 50.01 200.1ZM215.24 200.1C191.44 188.4 197.26 131.96 230.39 126.44C241.27 124.61 247.65 124.22 247.25 136.56C246.48 160.3 238.52 182.2 225.5 200.18C222.94 203.75 218.85 201.88 215.24 200.1ZM132.63 208.45C96.24 208.45 76.62 213.44 69.77 219.91C65.14 224.26 66.28 226.65 70.63 229.43C88.5 240.99 109.78 247.68 132.63 247.68C155.48 247.68 176.74 240.99 194.64 229.43C198.97 226.65 200.08 224.25 195.47 219.91C188.61 213.44 169.01 208.45 132.63 208.45ZM132.63 17.57C84.47 17.57 43.25 47.31 26.25 89.42C20.15 104.62 21.06 107.12 39.18 105.57C73.27 98.97 96.72 93.05 132.33 92.45L132.94 92.45C168.51 93.04 191.97 98.97 226.04 105.57C244.16 107.12 245.12 104.62 238.97 89.42C221.99 47.31 180.77 17.57 132.63 17.57ZM132.63 115.55C147.7 115.55 159.93 123.29 159.93 132.81C159.93 142.33 147.7 150.07 132.63 150.07C117.56 150.07 105.31 142.35 105.31 132.81C105.31 123.27 117.54 115.55 132.63 115.55ZM132.63 265.63C59.39 265.64 4.9011e-10 206.17 3.15742e-10 132.82C1.41373e-10 59.47 59.39 -1.41183e-10 132.63 -3.1529e-10C205.87 -4.89397e-10 265.24 59.47 265.24 132.82C265.24 206.17 205.87 265.64 132.63 265.64V265.63Z" fill="#939598"/>
<path d="M132.18 247.449L132.18 265.449" stroke="#FFF200" stroke-width="4" stroke-miterlimit="10"/>
</g>
<defs>
<clipPath id="clip0_254_3">
<rect width="265.24" height="265.64" fill="white"/>
</clipPath>
</defs>
</svg>
